X:400
T: Denis Murphy's Polka
M: 2/4
L: 1/16
Q: 450
R: Polka
K: D
fgfe dcdB|A2D2 F2A2|G2E2 e3d|c2B2 B2A2|
fgfe dcdB|A2D2 F2A2|G2E2 e3f|e2d2 d4 :|
A2f2 fef2|A2g2 gfg2|A2f2 f2d2|efed B2A2 |
A2f2 fef2|A2g2 gfga|b2a2 faaf|e2d2 d4 :|
